packages/ckeditor5-icons/theme/icons/ai-ask-ai.svg

<svg viewBox="0 0 20 20" xmlns="http://www.w3.org/2000/svg">
<path d="M0.773007 12.5356C1.16753 12.4105 1.5889 12.6285 1.71441 13.0229C1.71441 13.0229 1.7168 13.0291 1.71832 13.0336C1.72183 13.0441 1.72771 13.0622 1.7359 13.0854C1.75246 13.1322 1.77885 13.2041 1.815 13.2953C1.88777 13.4788 2.00026 13.7422 2.1568 14.0492C2.4725 14.6683 2.95501 15.4461 3.62945 16.1205C4.33044 16.8215 5.00967 17.3124 5.50934 17.6264C5.75878 17.7831 5.96308 17.8949 6.10113 17.9662C6.16992 18.0017 6.22208 18.0277 6.25543 18.0434C6.27209 18.0512 6.28474 18.0559 6.29156 18.059L6.29742 18.0619C6.6775 18.2259 6.85171 18.667 6.68805 19.0473C6.53428 19.4034 6.13725 19.5803 5.77496 19.4662L5.70269 19.4389L5.69391 19.435C5.68935 19.433 5.68255 19.4304 5.67535 19.4272C5.66094 19.4207 5.64115 19.4113 5.61676 19.3998C5.56757 19.3767 5.49848 19.3435 5.41266 19.2992C5.24069 19.2104 4.99996 19.0771 4.71148 18.8959C4.13512 18.5338 3.3633 17.9754 2.56891 17.1811C1.74809 16.3602 1.18128 15.4368 0.820859 14.7299C0.639789 14.3747 0.507771 14.0682 0.420468 13.8481C0.376892 13.7381 0.344175 13.6485 0.321835 13.5854C0.310725 13.5539 0.301551 13.5283 0.295468 13.5102C0.29258 13.5015 0.290387 13.4941 0.288632 13.4887C0.287829 13.4862 0.285703 13.4818 0.285703 13.4818V13.4789L0.284726 13.4779C0.284726 13.4779 0.284876 13.4772 0.99957 13.2504L0.284726 13.4779C0.159637 13.0833 0.378403 12.6609 0.773007 12.5356Z"/>
<path d="M13.3136 0.953336C13.4673 0.597173 13.8645 0.420441 14.2267 0.53439L14.299 0.561734L14.3078 0.56564C14.3123 0.567619 14.3192 0.570278 14.3263 0.573453C14.3407 0.579916 14.3607 0.589374 14.3849 0.600796C14.4341 0.623927 14.5033 0.657147 14.589 0.701382C14.7609 0.790133 15.0018 0.923532 15.2902 1.1047C15.8665 1.46681 16.6384 2.02526 17.4328 2.81955C18.2536 3.64033 18.8204 4.56385 19.1808 5.27072C19.3619 5.62584 19.4939 5.93237 19.5812 6.15255C19.6248 6.26245 19.6575 6.3521 19.6798 6.41525C19.6909 6.44664 19.7001 6.4723 19.7062 6.49045C19.7091 6.49905 19.7113 6.50653 19.713 6.51193C19.7138 6.51437 19.716 6.51877 19.716 6.51877V6.5217L19.717 6.52267C19.7146 6.52364 19.6742 6.53688 19.0021 6.75021L19.717 6.52267C19.8421 6.91739 19.6234 7.33978 19.2287 7.46505C18.8342 7.58997 18.4128 7.37202 18.2873 6.97775C18.2873 6.97775 18.2849 6.97149 18.2834 6.96701C18.2798 6.9565 18.274 6.93837 18.2658 6.91525C18.2492 6.86843 18.2228 6.79646 18.1867 6.70529C18.1139 6.52178 18.0014 6.25838 17.8449 5.95138C17.5292 5.33228 17.0466 4.5545 16.3722 3.88009C15.6713 3.17921 14.992 2.68815 14.4923 2.37423C14.243 2.2176 14.0386 2.10564 13.9005 2.03439C13.8319 1.99896 13.7796 1.97292 13.7462 1.95724C13.7297 1.94948 13.7169 1.94467 13.7101 1.94162L13.7043 1.93869C13.3244 1.77465 13.15 1.33353 13.3136 0.953336Z"/>
<path d="M11.2901 6.84012C11.6705 7.8679 12.4811 8.67844 13.5088 9.05887L16.9991 10.3499L13.5088 11.6409C12.481 12.0213 11.6705 12.8327 11.2901 13.8606L9.99908 17.3499L8.70807 13.8606C8.32767 12.8326 7.51634 12.0213 6.48834 11.6409L2.99908 10.3499L6.48834 9.05887C7.51628 8.67849 8.32764 7.86802 8.70807 6.84012L9.99908 3.34988L11.2901 6.84012Z"/>
<path d="M17.2989 15.5001C17.2989 15.0859 17.6347 14.7501 18.0489 14.7501C18.4631 14.7501 18.7989 15.0859 18.7989 15.5001C18.7989 15.9144 18.4631 16.2501 18.0489 16.2501C17.6347 16.2501 17.2989 15.9144 17.2989 15.5001Z"/>
<path d="M14.7999 18.0003C14.7999 17.5861 15.1356 17.2503 15.5499 17.2503C15.9641 17.2503 16.2999 17.5861 16.2999 18.0003C16.2999 18.4145 15.9641 18.7503 15.5499 18.7503C15.1356 18.7503 14.7999 18.4145 14.7999 18.0003Z"/>
<path d="M3.7984 2.001C3.7984 1.58679 4.13418 1.251 4.5484 1.251C4.96261 1.251 5.2984 1.58679 5.2984 2.001C5.2984 2.41522 4.96261 2.751 4.5484 2.751C4.13418 2.751 3.7984 2.41522 3.7984 2.001Z"/>
<path d="M1.29889 4.50113C1.29889 4.08691 1.63467 3.75113 2.04889 3.75113C2.4631 3.75113 2.79889 4.08691 2.79889 4.50113C2.79889 4.91534 2.4631 5.25113 2.04889 5.25113C1.63467 5.25113 1.29889 4.91534 1.29889 4.50113Z"/>
</svg>

<svg xmlns="http://www.w3.org/2000/svg" viewBox="0 0 20 20"><path d="M.773 12.536a.75.75 0 0 1 .945.498l.018.051a9 9 0 0 0 .42.964c.317.62.799 1.397 1.473 2.072.701.7 1.38 1.191 1.88 1.505a8 8 0 0 0 .746.417l.037.016.005.003a.75.75 0 0 1-.522 1.404l-.072-.027-.01-.004-.018-.008-.058-.027a10 10 0 0 1-.905-.504 12.3 12.3 0 0 1-2.143-1.715c-.82-.82-1.388-1.744-1.748-2.451a10 10 0 0 1-.5-1.145l-.026-.075-.006-.021-.003-.007v-.003l-.001-.001L1 13.25l-.715.228a.75.75 0 0 1 .488-.942M13.314.953a.75.75 0 0 1 .913-.419l.072.028.009.004.018.007.059.028q.075.034.204.1c.172.09.413.223.701.404a12.3 12.3 0 0 1 2.143 1.715c.82.82 1.387 1.744 1.748 2.45a10 10 0 0 1 .499 1.145l.026.075.007.022.003.007v.003h.001c-.002.002-.043.015-.715.228l.715-.227a.751.751 0 0 1-1.43.455l-.004-.011-.017-.052a9 9 0 0 0-.42-.964c-.317-.619-.8-1.397-1.474-2.07a10.8 10.8 0 0 0-1.88-1.507 8 8 0 0 0-.746-.417l-.036-.015-.006-.003a.75.75 0 0 1-.39-.986M11.29 6.84a3.76 3.76 0 0 0 2.22 2.22L17 10.35l-3.49 1.292a3.76 3.76 0 0 0-2.219 2.22L10 17.35l-1.292-3.49a3.76 3.76 0 0 0-2.22-2.22L3 10.35l3.49-1.291A3.76 3.76 0 0 0 8.71 6.84L10 3.35zm6.009 8.66a.75.75 0 1 1 1.5 0 .75.75 0 0 1-1.5 0M14.8 18a.75.75 0 1 1 1.5 0 .75.75 0 0 1-1.5 0M3.798 2.001a.75.75 0 1 1 1.5 0 .75.75 0 0 1-1.5 0m-2.499 2.5a.75.75 0 1 1 1.5 0 .75.75 0 0 1-1.5 0"/></svg>
